icons/unmute-24.svg

<svg xmlns="http://www.w3.org/2000/svg" width="24" height="24" viewBox="0 0 24 24"><path fill-rule="evenodd" d="M11.553 3.064A.75.75 0 0112 3.75v16.5a.75.75 0 01-1.255.555L5.46 16H2.75A1.75 1.75 0 011 14.25v-4.5C1 8.784 1.784 8 2.75 8h2.71l5.285-4.805a.75.75 0 01.808-.13zM10.5 5.445l-4.245 3.86a.75.75 0 01-.505.195h-3a.25.25 0 00-.25.25v4.5c0 .138.112.25.25.25h3a.75.75 0 01.505.195l4.245 3.86V5.445z"/><path d="M18.718 4.222a.75.75 0 011.06 0c4.296 4.296 4.296 11.26 0 15.556a.75.75 0 01-1.06-1.06 9.5 9.5 0 000-13.436.75.75 0 010-1.06z"/><path d="M16.243 7.757a.75.75 0 10-1.061 1.061 4.5 4.5 0 010 6.364.75.75 0 001.06 1.06 6 6 0 000-8.485z"/></svg>

<svg xmlns="http://www.w3.org/2000/svg" width="24" height="24" viewBox="0 0 24 24">
  <defs/>
  <path d="M11.553,3.064 C11.825,3.184 12,3.453 12,3.75 L12,20.25 C12,20.547 11.825,20.816 11.553,20.936 C11.282,21.057 10.965,21.005 10.745,20.805 L5.46,16 L2.75,16 C1.784,16 1,15.216 1,14.25 L1,9.75 C1,8.784 1.784,8 2.75,8 L5.46,8 L10.745,3.195 C10.965,2.996 11.282,2.945 11.553,3.065 Z M10.5,5.445 L6.255,9.305 C6.117,9.431 5.937,9.5 5.75,9.5 L2.75,9.5 C2.612,9.5 2.5,9.612 2.5,9.75 L2.5,14.25 C2.5,14.388 2.612,14.5 2.75,14.5 L5.75,14.5 C5.937,14.5 6.117,14.569 6.255,14.695 L10.5,18.555 Z"/>
  <path d="M18.718,4.222 A0.75 0.75 0 0 1 19.778,4.222 C24.074,8.518 24.074,15.482 19.778,19.778 A0.75 0.75 0 0 1 18.718,18.718 A9.5 9.5 0 0 0 18.718,5.282 A0.75 0.75 0 0 1 18.718,4.222 Z"/>
  <path d="M16.243,7.757 A0.75 0.75 0 1 0 15.182,8.818 A4.5 4.5 0 0 1 15.182,15.182 A0.75 0.75 0 0 0 16.242,16.242 A6 6 0 0 0 16.242,7.757 Z"/>
</svg>
